svgs/solid/money-bill.svg

<svg xmlns="http://www.w3.org/2000/svg" viewBox="0 0 576 512"><!-- Font Awesome Pro 6.0.0-alpha2 by @fontawesome - https://fontawesome.com License - https://fontawesome.com/license (Commercial License) --><path d="M528 64H48C21.492 64 0 85.492 0 112V400C0 426.508 21.492 448 48 448H528C554.512 448 576 426.508 576 400V112C576 85.492 554.512 64 528 64ZM48 400V336C83.375 336 112 364.625 112 400H48ZM48 176V112H112C112 147.375 83.375 176 48 176ZM288 352C243.816 352 208 309.018 208 256C208 202.98 243.816 160 288 160S368 202.98 368 256C368 309.018 332.184 352 288 352ZM528 400H464C464 364.625 492.625 336 528 336V400ZM528 176C492.625 176 464 147.375 464 112H528V176Z"/></svg>

<svg xmlns="http://www.w3.org/2000/svg" viewBox="0 0 576 512"><!--! Font Awesome Pro 6.0.0-alpha3 by @fontawesome - https://fontawesome.com License - https://fontawesome.com/license (Commercial License) --><path d="M528 64h-480C21.49 64 0 85.49 0 112v288C0 426.5 21.49 448 48 448h480c26.51 0 48-21.49 48-48v-288C576 85.49 554.5 64 528 64zM48 400v-64c35.38 0 64 28.62 64 64H48zM48 176v-64h64C112 147.4 83.38 176 48 176zM288 352c-44.18 0-80-42.98-80-96c0-53.02 35.82-96 80-96s80 42.98 80 96C368 309 332.2 352 288 352zM528 400h-64c0-35.38 28.62-64 64-64V400zM528 176c-35.38 0-64-28.62-64-64h64V176z"/></svg>
